X:18513
T:War Hent Kerrigouarch
T:On the Road to Kerrigouarch
M:4/4
L:1/8
Q:100
C:Soig Siberil
R:an dro
O:Brittany
D:Gerald Trimble "First Flight" GLCD 1043
Z:Blame Phil Sexton for the mistakes.
Z:I used Henrick Norbeck's ABCMUS to edit - Great program!
K:Edor
|:E2B2 B2AG|FED2 FGA2|E2B2 B2A2|FED2 A4|!
E2B2 B2A2|FED2 F2A2|E2B2 B2A2|1 FED2 E4:|2 FED2 E2EF||!
|:G2B2 e2de|B2e2 d4|e2d2 B2A2|FEFG A2EF|!
G2B2 e2de|B2e2 d4|e2d2 B2A2|1 FEFG E2EF:|2 FEFG E4||


